assets/icons/quiz-fill-in-the-blanks.svg

<svg width="32" height="32" viewBox="0 0 32 32" fill="none" xmlns="http://www.w3.org/2000/svg">
<rect width="32" height="32" rx="4" fill="#C9E3FF"/>
<path opacity="0.3" d="M16.2754 21.5C17.1038 21.5 17.7754 22.1716 17.7754 23C17.7754 23.8284 17.1038 24.5 16.2754 24.5H4.71875C3.89032 24.5 3.21875 23.8284 3.21875 23C3.21875 22.1716 3.89032 21.5 4.71875 21.5H16.2754ZM27.2832 14.5C28.1116 14.5 28.7832 15.1716 28.7832 16C28.7832 16.8284 28.1116 17.5 27.2832 17.5H19.7188C18.8903 17.5 18.2188 16.8284 18.2188 16C18.2188 15.1716 18.8903 14.5 19.7188 14.5H27.2832ZM16.2754 7.5C17.1038 7.5 17.7754 8.17157 17.7754 9C17.7754 9.82843 17.1038 10.5 16.2754 10.5H4.71875C3.89032 10.5 3.21875 9.82843 3.21875 9C3.21875 8.17157 3.89032 7.5 4.71875 7.5H16.2754Z" fill="#0049F8"/>
<path d="M28.7734 24.5H19.7734V23.5H28.7734V24.5ZM16.2188 17.5H3.21875V16.5H16.2188V17.5ZM28.7734 10.5H19.7734V9.5H28.7734V10.5Z" fill="#0049F8"/>
</svg>

<svg xmlns="http://www.w3.org/2000/svg" width="32" height="32" fill="none" viewBox="0 0 32 32"><rect width="32" height="32" fill="#C9E3FF" rx="4"/><path fill="#0049F8" d="M16.275 21.5a1.5 1.5 0 0 1 0 3H4.72a1.5 1.5 0 0 1 0-3h11.556Zm11.008-7a1.5 1.5 0 0 1 0 3H19.72a1.5 1.5 0 1 1 0-3h7.564Zm-11.008-7a1.5 1.5 0 0 1 0 3H4.72a1.5 1.5 0 1 1 0-3h11.556Z" opacity=".3"/><path fill="#0049F8" d="M28.773 24.5h-9v-1h9v1Zm-12.554-7h-13v-1h13v1Zm12.554-7h-9v-1h9v1Z"/></svg>
